X:1     
T:The Morning Break 
B:Sabine Baring Gould, 1895, Old English Songs from English Minstrelsie, 1895
F: http://www.folkinfo.org/songs
M:4/4     %Meter
L:1/8     %
K:C
(EF) |G3 A (GE) (DC) |E2 A2 A2 z G |c3 d e2 (dc) | (cB) (AG) c2 z
w:A-*wake, ye drow-*sy_ maids a-wake, Be-hold the beau-teous_ morn-*ing_ break; 
 G |c3 d e2 (dc) |(cB) (AG) c2 (BA) |G3 A (GE) (DC) |E2 A2 A2 z2 |]
w:The ro-sy kir-tled_ dawn_ ap-*pears To_ kiss a-way_ night's_ hea-vy tears. 